static/images/mobile/copyright/wikipedia-wordmark-ami.svg

<?xml version="1.0" encoding="UTF-8"?>
<svg width="121px" height="18px" viewBox="0 0 121 18" version="1.1" xmlns="http://www.w3.org/2000/svg" xmlns:xlink="http://www.w3.org/1999/xlink">
    <title>wikipedia-wordmark-ami</title>
    <g id="Page-1" stroke="none" stroke-width="1" fill="none" fill-rule="evenodd">
        <path d="M78.7345052,14.8652852 L78.7345052,7.51688829 C78.7345052,6.28574325 78.9268716,5.55475088 79.6193907,5.55475088 L80.0425968,5.55475088 C81.4853449,5.55475088 82.389467,6.05490355 82.7164899,7.53612493 C82.928093,7.53612493 83.197406,7.51688829 83.3705357,7.43994172 C83.2358792,6.55505623 83.139696,5.57398752 83.1204594,4.70833867 C83.1204594,4.68910203 83.0819861,4.65062874 83.0627495,4.65062874 C82.4087037,4.70833867 80.2734365,4.80452187 78.7537418,4.80452187 L77.0993907,4.80452187 C75.6181693,4.80452187 73.3482457,4.70833867 72.6172533,4.65062874 C72.57878,4.65062874 72.5403067,4.68910203 72.5403067,4.70833867 C72.4633602,5.57398752 72.2709938,6.57429287 72.0593907,7.49765165 C72.2517571,7.57459821 72.4825968,7.59383485 72.7134365,7.59383485 C73.0981693,6.05490355 73.9830548,5.55475088 75.2526731,5.55475088 L76.1952686,5.55475088 C76.9070243,5.55475088 77.0993907,6.28574325 77.0993907,7.45917836 L77.0993907,14.8652852 C77.0993907,16.4619265 76.7723678,16.5581097 75.2334365,16.6158196 C75.1180167,16.7312394 75.1180167,17.1352089 75.2334365,17.2506287 C76.1760319,17.2313921 77.1551768,17.2121555 77.9265663,17.2121555 C78.6652532,17.2121555 79.6386273,17.2313921 80.6004594,17.2506287 C80.7158792,17.1352089 80.7158792,16.7312394 80.6004594,16.6158196 C79.0615281,16.5581097 78.7345052,16.4619265 78.7345052,14.8652852 Z M18.164633,0.000828060009 C18.2312497,0.000919904693 18.2969165,0.00101707965 18.3614292,0.00111835481 L18.733023,0.00176536781 C18.7921027,0.00187812356 18.8496199,0.0019925194 18.9053706,0.00210732525 L19.2170414,0.00279124013 C19.2649088,0.00290276582 19.3106012,0.0030122414 19.3539145,0.00311843682 L19.6739834,0.00395241935 C19.7011841,0.0040278632 19.725393,0.00409633669 19.746406,0.00415660976 L19.843721,0.00444444444 L19.900361,0.0571444444 L19.900361,0.553244444 C19.900361,0.690224444 19.823841,0.758324444 19.671841,0.758324444 C18.92582,0.793324444 18.77294,0.867274444 18.49994,1.26027444 C18.35094,1.47531444 18.056891,1.93667444 17.751891,2.45367444 L15.132791,7.35017444 C15.132791,7.35017444 15.061271,7.49652444 15.058571,7.50252444 L18.259771,14.0494244 L18.45313,14.1021244 L23.49413,2.14112444 C23.66912,1.65911444 23.641,1.31672444 23.416,1.11572444 C23.19,0.919724444 23.03125,0.803784444 22.44725,0.779784444 L21.97459,0.756384444 C21.91659,0.756384444 21.86157,0.734884444 21.80857,0.695884444 C21.75657,0.658884444 21.72849,0.610344444 21.72849,0.551344444 L21.72849,0.0533044444 L21.800921,0.00227444444 L27.496221,0.00227444444 L27.552861,0.0530744444 L27.552861,0.551114444 C27.552861,0.686144444 27.476342,0.754244444 27.324341,0.754244444 C26.578392,0.787244444 26.026142,0.949614444 25.668142,1.23861444 C25.309142,1.52961444 25.029302,1.93051444 24.828302,2.45151444 C24.828302,2.45151444 21.045604,11.1065155 19.1447981,15.3798695 L18.9485995,15.8203684 C18.8229452,16.1020649 18.7079246,16.3590306 18.605602,16.5865144 C17.998602,17.7425144 17.402102,17.6363144 16.877102,16.5533144 C16.161701,15.0799144 14.864301,12.2348144 13.851702,10.0025144 C13.5671757,10.5908039 13.2610365,11.222189 12.9499098,11.8600571 L12.5752279,12.6262675 C11.8253321,14.1555394 11.0850136,15.6377987 10.584102,16.5669144 C9.876102,17.7979144 9.292202,17.6381144 8.828201,16.6001144 C7.217201,12.7991144 3.908602,6.12511444 2.3516013,2.38511444 C2.0636013,1.69615444 1.8476195,1.25351444 1.6426195,1.07851444 C1.4366205,0.905514444 1.00842,0.801014444 0.35742,0.766014444 C0.11842,0.740014444 0,0.682274444 0,0.588274444 L0,0.0667944444 L0.056641,0.0159944444 L0.284090348,0.0150565246 C0.328418135,0.0149197447 0.375799607,0.0147924294 0.426000619,0.0146741208 L0.759168028,0.0140686863 C0.819710626,0.0139845727 0.882604477,0.0139085499 0.947615436,0.0138401599 L3.79799961,0.0138841249 C3.88010441,0.0139329749 3.96151659,0.0139839621 4.042002,0.0140366284 L5.1505077,0.0148953197 C5.21587185,0.014953329 5.27913851,0.0150107278 5.34007354,0.0150670579 L6.248042,0.0159944444 L6.304682,0.0667944444 L6.304682,0.562884444 C6.304682,0.699914444 6.217872,0.766014444 6.046873,0.766014444 L5.400392,0.793314444 C4.846392,0.816314444 4.570312,0.982414444 4.570312,1.28941444 C4.570312,1.43241444 4.628812,1.66391444 4.757812,1.97691444 C5.95430323,4.89220392 9.9826004,13.4035106 10.2638149,13.9972062 L10.279312,14.0299144 L10.437512,14.0709144 L13.199212,8.56311444 C13.055472,8.24501444 12.644522,7.34051444 12.644522,7.34051444 L10.748022,3.61001444 C10.748022,3.61001444 10.5414776,3.19031069 10.3854711,2.87583382 L10.255832,2.61587444 C9.421792,0.962834444 9.438632,0.875274444 8.595632,0.764274444 C8.359632,0.733264444 8.238212,0.703534444 8.238212,0.586534444 L8.238212,0.0630944444 L8.308522,0.0122944444 C8.41005533,0.0121577778 8.51988244,0.0120304444 8.63644624,0.0119118074 L9.82536917,0.0110616741 C9.89685418,0.0110255778 9.96885553,0.0109911778 10.0411786,0.0109583944 L13.220622,0.0102944444 L13.351482,0.0532944444 L13.351482,0.574774444 C13.351482,0.693764444 13.266672,0.754464444 13.093672,0.754464444 L12.736252,0.805264444 C11.836252,0.875264444 11.983952,1.24316444 12.581952,2.43416444 L14.404252,6.16076444 L16.417952,2.14316444 C16.754952,1.40815444 16.685862,1.22526444 16.546862,1.05526444 C16.466862,0.959264444 16.198222,0.805824444 15.615222,0.781824444 L15.386702,0.756424444 C15.328702,0.756424444 15.273682,0.736824444 15.220682,0.697824444 C15.168682,0.660824444 15.142552,0.612334444 15.142552,0.551334444 L15.142552,0.0552444444 L15.214822,0.00444444444 C15.4606839,0.00272030651 15.7593669,0.0015906989 16.0853481,0.000901863773 Z M24.90126,4.74330444 C24.90126,4.74330444 27.03426,4.79730444 27.87126,4.79730444 C28.60026,4.79730444 30.67926,4.74330444 30.67926,4.74330444 L30.706261,4.79730444 L30.706261,5.39130444 C30.706261,5.47230444 30.65226,5.52630444 30.54426,5.52630444 L29.97726,5.58030444 C29.14026,5.66130444 28.84326,5.87730444 28.84326,6.41730444 L28.843261,15.4083044 C28.843261,16.0023044 29.113261,16.3533044 29.977261,16.4343044 L30.544261,16.4883044 C30.625261,16.4883044 30.706261,16.5423044 30.706261,16.6503044 L30.706261,17.2173044 L30.679261,17.2713044 C30.679261,17.2713044 28.627261,17.2173044 27.790261,17.2173044 L27.6791269,17.217629 C26.8471576,17.222102 24.92826,17.2713044 24.92826,17.2713044 L24.87426,17.2173044 L24.87426,16.6503044 C24.87426,16.5423044 24.955261,16.4883044 25.06326,16.4883044 L25.60326,16.4343044 C26.49426,16.3533044 26.76426,15.9213044 26.76426,15.4083044 L26.76426,6.41730444 C26.76426,5.82330444 26.44026,5.66130444 25.60326,5.58030444 L25.06326,5.52630444 C24.95526,5.52630444 24.87426,5.49930444 24.87426,5.41830444 L24.87426,4.79730444 Z M36.08426,11.4073044 C36.67826,11.4073044 37.110261,11.5423044 37.51526,12.0823044 L40.51226,15.8083044 C40.89026,16.2403044 40.91726,16.5373044 40.91726,16.8883044 L40.91726,17.2123044 L40.94426,17.2393044 C40.94426,17.2393044 41.91626,17.2123044 42.59126,17.2123044 C43.34726,17.2123044 44.77826,17.2393044 44.77826,17.2393044 L44.85926,17.2123044 L44.85926,16.6453044 C44.85926,16.5643044 44.75126,16.5103044 44.67026,16.4833044 L44.53526,16.4563044 C43.99526,16.3483044 43.34726,16.1863044 43.02326,15.8083044 L38.94626,10.8943044 C38.811261,10.7323044 38.70326,10.5973044 38.70326,10.4353044 C38.70326,10.2193044 38.86526,9.92230444 39.32426,9.43630444 L41.646261,6.76330444 C42.618261,5.65630444 43.347261,5.60230444 44.400261,5.52130444 C44.53526,5.52130444 44.616261,5.46730444 44.616261,5.38630444 L44.616261,4.76530444 L44.535261,4.73830444 C44.535261,4.73830444 43.347261,4.79230444 42.645261,4.79230444 C41.862261,4.79230444 39.675261,4.73830444 39.675261,4.73830444 L39.648261,4.76530444 L39.648261,5.38630444 C39.648261,5.46730444 39.702261,5.49430444 39.810261,5.52130444 C40.350261,5.60230444 40.593261,5.84530444 40.593261,6.06130444 C40.593261,6.57430444 39.756261,7.57330444 38.676261,8.76130444 C37.488261,10.0303044 36.975261,10.4893044 36.084261,10.4893044 L36.084261,6.41230444 C36.084261,5.87230444 36.381261,5.73730444 37.218261,5.57530444 L37.515261,5.52130444 C37.623261,5.49430444 37.677261,5.46730444 37.677261,5.38630444 L37.677261,4.79230444 L37.650261,4.73830444 C37.650261,4.73830444 35.949261,4.79230444 35.193261,4.79230444 C34.356261,4.79230444 32.142261,4.73830444 32.142261,4.73830444 L32.115261,4.79230444 L32.115261,5.41330444 C32.115261,5.49430444 32.196261,5.52130444 32.304261,5.52130444 L32.844261,5.57530444 C33.708261,5.65630444 34.005261,5.81830444 34.005261,6.41230444 L34.005261,15.4033044 C34.005261,15.9163044 33.654261,16.3483044 32.844261,16.4293044 L32.304261,16.4833044 C32.196261,16.4833044 32.115261,16.5373044 32.115261,16.6453044 L32.115261,17.2123044 L32.169261,17.2663044 C32.169261,17.2663044 34.383261,17.2123044 35.139261,17.2123044 C35.949261,17.2123044 37.650261,17.2663044 37.650261,17.2663044 L37.677261,17.2123044 L37.677261,16.6453044 C37.677261,16.5373044 37.596261,16.5103044 37.515261,16.4833044 L37.218261,16.4293044 C36.435261,16.2943044 36.084261,15.9973044 36.084261,15.4033044 L36.084261,11.4073044 M49.91726,6.41230444 C49.91726,5.87230444 50.21426,5.65630444 51.05126,5.57530444 L51.61826,5.52130444 C51.72626,5.52130444 51.780261,5.46730444 51.780261,5.38630444 L51.780261,4.79230444 L51.75326,4.73830444 C51.75326,4.73830444 49.67426,4.79230444 48.94526,4.79230444 C48.10826,4.79230444 45.97526,4.73830444 45.97526,4.73830444 L45.94826,4.79230444 L45.94826,5.41330444 C45.94826,5.49430444 46.02926,5.52130444 46.13726,5.52130444 L46.67726,5.57530444 C47.51426,5.65630444 47.83826,5.81830444 47.83826,6.41230444 L47.83826,15.4033044 C47.83826,15.9163044 47.56826,16.3483044 46.67726,16.4293044 L46.13726,16.4833044 C46.02926,16.4833044 45.94826,16.5373044 45.94826,16.6453044 L45.94826,17.2123044 L46.00226,17.2663044 C46.00226,17.2663044 48.10826,17.2123044 48.86426,17.2123044 C49.701261,17.2123044 51.753261,17.2663044 51.753261,17.2663044 L51.780261,17.2123044 L51.780261,16.6453044 C51.780261,16.5373044 51.699261,16.4833044 51.618261,16.4833044 L51.051261,16.4293044 C50.187261,16.3483044 49.917261,15.9973044 49.917261,15.4033044 L49.917261,6.41230444 M53.270219,4.73242444 L53.217484,4.75977444 L53.217484,5.38086444 C53.217484,5.43486444 53.244935,5.51562444 53.406938,5.51562444 C54.675937,5.59663444 55.026078,5.62394444 55.026078,6.46094444 L55.026078,15.5332044 C55.026078,16.0462044 54.755656,16.2884844 53.918656,16.3964844 L53.35225,16.4765644 C53.24425,16.5035644 53.190141,16.5306644 53.190141,16.6386744 L53.190141,17.2070344 L53.217484,17.2597744 C53.217484,17.2597744 55.242734,17.2070344 55.998734,17.2070344 C56.835734,17.2070344 58.994828,17.2597744 58.994828,17.2597744 L59.022172,17.2070344 L59.022172,16.6386744 C59.022172,16.5306744 58.940722,16.5035644 58.832719,16.4765644 L58.293656,16.3964844 C57.429656,16.2614844 57.104203,16.1272044 57.104203,15.5332044 L57.104203,11.9140644 C57.590203,12.1300644 58.130376,12.1835944 58.805375,12.1835944 C62.639376,12.1835944 63.422562,9.64539444 63.422562,8.02539444 C63.422562,6.62139444 62.721406,4.73242444 58.887406,4.73242444 C57.888406,4.73242444 56.807469,4.78711444 56.051469,4.78711444 C55.268469,4.78711444 53.675219,4.73242444 53.270219,4.73242444 Z M58.725297,5.51562444 C60.210297,5.51562444 61.262406,6.02761444 61.262406,8.34961444 C61.262406,10.4286144 60.480063,11.4003944 58.860062,11.4003944 C58.320062,11.4003944 57.644203,11.3741944 57.104203,11.1582044 L57.104203,6.46094444 C57.104203,5.75894444 57.429297,5.51562444 58.725297,5.51562444 L58.725297,5.51562444 Z M112.14144,0.0918044444 C112.50444,0.0918044444 112.63561,0.353094444 112.84261,0.873094444 L118.17269,14.9648844 C118.53769,15.9798844 119.05652,16.3687044 120.09652,16.4727044 L120.38363,16.4981044 C120.51363,16.4981044 120.6434,16.5760844 120.6434,16.7070844 L120.6434,17.2012244 L120.5653,17.2520244 C120.5653,17.2520244 118.56368,17.2012244 117.54968,17.2012244 L117.432882,17.2014618 C116.439848,17.2052072 114.09069,17.2520244 114.09069,17.2520244 L114.06529,17.2012244 L114.06529,16.7070844 C114.06529,16.5761044 114.11688,16.4981044 114.24888,16.4981044 L114.9774,16.4473044 C115.9644,16.3703044 116.3302,16.0551644 116.0692,15.3281544 L114.48326,10.9336244 L109.07506,10.9336244 C108.45106,10.9336244 108.29585,11.0380344 108.16685,11.3750344 L106.65709,15.1445644 C106.39709,15.7965644 106.7361,16.3712544 107.6981,16.4492544 L108.45201,16.5019544 C108.55601,16.5019544 108.65904,16.5799844 108.65904,16.7089844 L108.65904,17.2031244 L108.60824,17.2558244 C108.60824,17.2558244 107.841659,17.2415744 107.018001,17.2278943 L106.636382,17.2216748 C106.002208,17.2115564 105.39885,17.2031244 105.14925,17.2031244 L105.034533,17.203547 C104.301621,17.2085258 102.80746,17.2558244 102.80746,17.2558244 L102.75476,17.2031244 L102.75476,16.7089844 C102.75476,16.5799544 102.83275,16.5019544 102.96375,16.5019544 C104.10875,16.4239544 104.75723,16.2147844 105.48523,14.5507844 L111.25672,1.02930444 C111.54172,0.353304444 111.75048,0.0918044444 112.14148,0.0918044444 Z M92.399992,4.71630444 C92.642992,4.71630444 94.317,4.77030444 94.614,4.77030444 C94.6779474,4.77030444 95.2204903,4.76424627 95.8083101,4.75499959 L96.2021424,4.74839425 C96.7235152,4.73904129 97.2045789,4.72767287 97.341,4.71630444 L97.368,4.74330444 L97.368,5.36430444 C97.368,5.41830444 97.314,5.49930444 97.233,5.49930444 L96.639,5.55330444 C95.991,5.60730444 96.09901,5.85030444 96.369,6.28230444 L99.096,10.7373044 L99.15,10.7373044 L101.661,6.28230444 C102.012,5.63430444 102.012,5.60730444 101.364,5.55330444 L100.743,5.49930444 C100.662,5.49930444 100.635,5.41830444 100.635,5.36430444 L100.635,4.74330444 L100.689,4.71630444 C100.986,4.71630444 102.498,4.77030444 102.768,4.77030444 C102.957,4.77030444 104.199,4.74330444 104.604,4.71630444 L104.631,4.77030444 L104.631,5.36430444 C104.631,5.41830444 104.631,5.47230444 104.442,5.49930444 L103.983,5.55330444 C103.119,5.66130444 102.984,5.82330444 102.579,6.55230444 L99.609,11.7903044 L99.609,15.5433044 C99.609,16.1373044 99.906,16.3263044 100.743,16.4073044 L101.31,16.4613044 C101.418,16.4613044 101.499,16.5423044 101.499,16.6233044 L101.499,17.1903044 L101.445,17.2443044 C101.445,17.2443044 99.393,17.1903044 98.556,17.1903044 L98.4448659,17.190629 C97.6128967,17.195102 95.694,17.2443044 95.694,17.2443044 L95.64,17.1903044 L95.64,16.6233044 C95.64,16.5423044 95.721,16.4613044 95.829,16.4613044 L96.369,16.4073044 C97.206,16.3263044 97.53,16.0833044 97.53,15.5433044 L97.53,11.8983044 L94.128,6.30930444 C93.77699,5.74230444 93.344992,5.58030444 92.561992,5.49930444 C92.480992,5.49930444 92.345992,5.47230444 92.345992,5.36430444 L92.345992,4.77030444 Z M111.54575,2.90039444 L111.49305,2.90039444 L108.89341,9.50591444 C108.78941,9.76690444 108.96984,9.84380444 109.54184,9.84380444 L114.06723,9.84380444 L111.54575,2.90039444 Z M68.690832,6.39030444 C68.690832,5.85030444 68.987831,5.63430444 69.824832,5.55330444 L70.39183,5.49930444 C70.499831,5.49930444 70.553832,5.44530444 70.553832,5.36430444 L70.553832,4.77030444 L70.526832,4.71630444 C70.526832,4.71630444 68.447834,4.77030444 67.718829,4.77030444 C66.881828,4.77030444 64.74883,4.71630444 64.74883,4.71630444 L64.72183,4.77030444 L64.72183,5.39130444 C64.72183,5.47230444 64.80283,5.49930444 64.910829,5.49930444 L65.45083,5.55330444 C66.287831,5.63430444 66.611831,5.79630444 66.611831,6.39030444 L66.611831,15.3813044 C66.611831,15.8943044 66.341832,16.3263044 65.45083,16.4073044 L64.910829,16.4613044 C64.802827,16.4613044 64.72183,16.5153044 64.72183,16.6233044 L64.72183,17.1903044 L64.77583,17.2443044 C64.77583,17.2443044 66.881828,17.1903044 67.637828,17.1903044 C68.474829,17.1903044 70.526828,17.2443044 70.526828,17.2443044 L70.553832,17.1903044 L70.553832,16.6233044 C70.553832,16.5153044 70.472828,16.4613044 70.391827,16.4613044 L69.824828,16.4073044 C68.960828,16.3263044 68.690828,15.9753044 68.690828,15.3813044 L68.690828,6.39030444 M88.983003,6.39030444 C88.983003,5.85030444 89.280002,5.63430444 90.117003,5.55330444 L90.684002,5.49930444 C90.792002,5.49930444 90.846002,5.44530444 90.846002,5.36430444 L90.846002,4.77030444 L90.819002,4.71630444 C90.819002,4.71630444 88.740004,4.77030444 88.011,4.77030444 C87.173998,4.77030444 85.041,4.71630444 85.041,4.71630444 L85.014,4.77030444 L85.014,5.39130444 C85.014,5.47230444 85.095,5.49930444 85.202998,5.49930444 L85.743,5.55330444 C86.580001,5.63430444 86.904001,5.79630444 86.904001,6.39030444 L86.904001,15.3813044 C86.904001,15.8943044 86.634002,16.3263044 85.743,16.4073044 L85.202998,16.4613044 C85.094997,16.4613044 85.014,16.5153044 85.014,16.6233044 L85.014,17.1903044 L85.068,17.2443044 C85.068,17.2443044 87.173998,17.1903044 87.929998,17.1903044 C88.767,17.1903044 90.819002,17.2443044 90.819002,17.2443044 L90.846002,17.1903044 L90.846002,16.6233044 C90.846002,16.5153044 90.765002,16.4613044 90.683992,16.4613044 L90.117003,16.4073044 C89.253002,16.3263044 88.982998,15.9753044 88.982998,15.3813044 L88.982998,6.39030444" id="wikipedia-wordmark-ami" fill="#000000" fill-rule="nonzero"></path>
    </g>
</svg>

<svg xmlns="http://www.w3.org/2000/svg" width="121" height="18"><path fill="#000" fill-rule="nonzero" d="M78.735 14.865V7.517c0-1.231.192-1.962.884-1.962h.424c1.442 0 2.346.5 2.673 1.981.212 0 .481-.02.655-.096a22.179 22.179 0 0 1-.25-2.732c0-.019-.039-.057-.058-.057-.654.057-2.79.154-4.31.154H77.1c-1.48 0-3.75-.097-4.482-.154-.038 0-.077.038-.077.057-.077.866-.269 1.866-.48 2.79.192.077.423.096.653.096.385-1.54 1.27-2.04 2.54-2.04h.942c.712 0 .904.732.904 1.905v7.406c0 1.597-.327 1.693-1.866 1.75-.115.116-.115.52 0 .636.943-.02 1.922-.039 2.694-.039.738 0 1.712.02 2.673.039.116-.116.116-.52 0-.635-1.538-.058-1.865-.154-1.865-1.75ZM18.165.001H18.733l.172.001h.312l.137.001.32.001H19.844l.056.053v.496c0 .137-.076.205-.228.205-.746.035-.9.11-1.172.502-.15.215-.443.677-.748 1.194l-2.62 4.896-.073.153 3.2 6.546.194.053 5.041-11.96c.175-.483.147-.825-.078-1.026-.226-.196-.385-.312-.969-.336l-.472-.024a.278.278 0 0 1-.166-.06.173.173 0 0 1-.08-.145V.053l.072-.05h5.695l.057.05v.498c0 .135-.077.203-.229.203-.746.033-1.298.196-1.656.485-.359.29-.639.692-.84 1.213 0 0-3.782 8.655-5.683 12.928l-.196.44-.343.767c-.607 1.156-1.204 1.05-1.729-.034-.715-1.473-2.013-4.318-3.025-6.55-.285.588-.591 1.22-.902 1.857l-.375.766c-.75 1.53-1.49 3.012-1.99 3.94-.709 1.232-1.293 1.072-1.757.034-1.61-3.8-4.92-10.475-6.476-14.215-.288-.689-.504-1.131-.71-1.306C1.438.906 1.009.8.358.766.118.74 0 .682 0 .588V.067L.057.016h.227L.426.014h.333L.948.013H5.15l.19.001.907.001.057.05v.497c0 .137-.087.203-.258.203L5.4.793c-.554.023-.83.19-.83.496 0 .143.059.375.188.688 1.196 2.915 5.225 11.427 5.506 12.02l.015.033.159.04 2.761-5.507-.554-1.222-1.897-3.731-.363-.734-.13-.26C9.423.963 9.44.876 8.596.764c-.235-.03-.357-.06-.357-.177V.063l.07-.05.328-.001h1.19L10.04.01h3.18l.13.042v.522c0 .119-.084.18-.257.18l-.358.05c-.9.07-.752.438-.154 1.63l1.822 3.726 2.014-4.018c.337-.735.268-.918.129-1.088-.08-.096-.349-.25-.932-.273l-.228-.026a.276.276 0 0 1-.166-.058.171.171 0 0 1-.078-.147V.055l.072-.05.87-.004ZM24.9 4.743s2.133.054 2.97.054c.73 0 2.808-.054 2.808-.054l.027.054v.594c0 .081-.054.135-.162.135l-.567.054c-.837.081-1.134.297-1.134.837v8.991c0 .594.27.945 1.134 1.026l.567.054c.081 0 .162.054.162.162v.567l-.027.054s-2.052-.054-2.889-.054h-.11c-.833.005-2.752.054-2.752.054l-.054-.054v-.567c0-.108.081-.162.19-.162l.54-.054c.89-.08 1.16-.513 1.16-1.026v-8.99c0-.595-.324-.757-1.16-.838l-.54-.054c-.109 0-.19-.027-.19-.108v-.62Zm11.183 6.664c.594 0 1.026.135 1.431.675l2.997 3.726c.378.432.405.73.405 1.08v.324l.027.027s.972-.027 1.647-.027c.756 0 2.187.027 2.187.027l.081-.027v-.567c0-.08-.108-.135-.189-.162l-.135-.027c-.54-.108-1.188-.27-1.512-.648l-4.077-4.914c-.135-.162-.243-.297-.243-.459 0-.216.162-.513.621-.999l2.322-2.673c.972-1.107 1.701-1.16 2.754-1.242.135 0 .216-.054.216-.135v-.62l-.08-.028s-1.189.054-1.89.054c-.784 0-2.97-.054-2.97-.054l-.028.027v.621c0 .081.054.108.162.135.54.081.783.324.783.54 0 .513-.837 1.512-1.917 2.7-1.188 1.27-1.7 1.728-2.592 1.728V6.412c0-.54.297-.675 1.134-.837l.297-.054c.108-.027.162-.054.162-.135v-.594l-.027-.054s-1.7.054-2.457.054c-.837 0-3.05-.054-3.05-.054l-.028.054v.621c0 .081.081.108.19.108l.54.054c.863.081 1.16.243 1.16.837v8.991c0 .513-.35.945-1.16 1.026l-.54.054c-.109 0-.19.054-.19.162v.567l.054.054s2.214-.054 2.97-.054c.81 0 2.511.054 2.511.054l.027-.054v-.567c0-.108-.08-.135-.162-.162l-.297-.054c-.783-.135-1.134-.432-1.134-1.026v-3.996m13.833-4.995c0-.54.297-.756 1.134-.837l.567-.054c.108 0 .162-.054.162-.135v-.594l-.027-.054s-2.079.054-2.808.054c-.837 0-2.97-.054-2.97-.054l-.027.054v.621c0 .081.081.108.19.108l.54.054c.836.081 1.16.243 1.16.837v8.991c0 .513-.27.945-1.16 1.026l-.54.054c-.109 0-.19.054-.19.162v.567l.054.054s2.106-.054 2.862-.054c.837 0 2.89.054 2.89.054l.026-.054v-.567c0-.108-.08-.162-.162-.162l-.567-.054c-.864-.08-1.134-.432-1.134-1.026v-8.99m3.353-1.68-.053.027v.62c0 .055.028.136.19.136 1.269.08 1.62.108 1.62.945v9.072c0 .513-.271.755-1.108.863l-.567.08c-.108.028-.162.055-.162.163v.568l.027.053s2.026-.053 2.782-.053c.837 0 2.996.053 2.996.053l.027-.053v-.568c0-.108-.081-.135-.19-.162l-.538-.08c-.864-.136-1.19-.27-1.19-.864v-3.619c.486.216 1.026.27 1.701.27 3.834 0 4.618-2.539 4.618-4.159 0-1.404-.702-3.293-4.536-3.293-.999 0-2.08.055-2.836.055-.783 0-2.376-.055-2.78-.055Zm5.455.783c1.485 0 2.537.512 2.537 2.834 0 2.079-.782 3.05-2.402 3.05-.54 0-1.216-.026-1.756-.242V6.461c0-.702.325-.945 1.621-.945ZM112.141.092c.363 0 .495.261.702.781l5.33 14.092c.365 1.015.884 1.404 1.924 1.508l.287.025c.13 0 .26.078.26.21v.493l-.079.051s-2.001-.05-3.015-.05h-.117c-.993.003-3.342.05-3.342.05l-.026-.05v-.495c0-.13.052-.209.184-.209l.728-.05c.987-.078 1.353-.393 1.092-1.12l-1.586-4.394h-5.408c-.624 0-.78.104-.908.441l-1.51 3.77c-.26.652.08 1.226 1.041 1.304l.754.053c.104 0 .207.078.207.207v.494l-.05.053-1.591-.028-.382-.006c-.634-.01-1.237-.019-1.487-.019h-.114c-.733.006-2.228.053-2.228.053l-.052-.053v-.494c0-.129.078-.207.209-.207 1.145-.078 1.793-.287 2.521-1.951l5.772-13.522c.285-.676.493-.937.884-.937ZM92.4 4.716c.243 0 1.917.054 2.214.054.064 0 .606-.006 1.194-.015l.394-.007c.522-.009 1.003-.02 1.139-.032l.027.027v.621c0 .054-.054.135-.135.135l-.594.054c-.648.054-.54.297-.27.73l2.727 4.454h.054l2.511-4.455c.351-.648.351-.675-.297-.729l-.621-.054c-.081 0-.108-.08-.108-.135v-.62l.054-.028c.297 0 1.809.054 2.079.054.189 0 1.431-.027 1.836-.054l.027.054v.594c0 .054 0 .108-.189.135l-.459.054c-.864.108-.999.27-1.404 1l-2.97 5.237v3.753c0 .594.297.783 1.134.864l.567.054c.108 0 .189.081.189.162v.567l-.054.054s-2.052-.054-2.889-.054h-.111c-.832.005-2.751.054-2.751.054l-.054-.054v-.567c0-.08.081-.162.189-.162l.54-.054c.837-.08 1.161-.324 1.161-.864v-3.645L94.128 6.31c-.351-.567-.783-.729-1.566-.81-.081 0-.216-.027-.216-.135V4.77ZM111.546 2.9h-.053l-2.6 6.606c-.104.26.077.338.649.338h4.525L111.546 2.9ZM68.69 6.39c0-.54.297-.756 1.134-.837l.567-.054c.108 0 .162-.054.162-.135V4.77l-.027-.054s-2.08.054-2.808.054c-.837 0-2.97-.054-2.97-.054l-.027.054v.621c0 .081.08.108.189.108l.54.054c.837.081 1.16.243 1.16.837v8.991c0 .513-.27.945-1.16 1.026l-.54.054c-.108 0-.19.054-.19.162v.567l.055.054s2.106-.054 2.862-.054c.837 0 2.889.054 2.889.054l.027-.054v-.567c0-.108-.081-.162-.162-.162l-.567-.054c-.864-.08-1.134-.432-1.134-1.026v-8.99m20.292 0c0-.54.297-.757 1.134-.838l.567-.054c.108 0 .162-.054.162-.135V4.77l-.027-.054s-2.079.054-2.808.054c-.837 0-2.97-.054-2.97-.054l-.027.054v.621c0 .081.081.108.189.108l.54.054c.837.081 1.161.243 1.161.837v8.991c0 .513-.27.945-1.161 1.026l-.54.054c-.108 0-.189.054-.189.162v.567l.054.054s2.106-.054 2.862-.054c.837 0 2.889.054 2.889.054l.027-.054v-.567c0-.108-.081-.162-.162-.162l-.567-.054c-.864-.08-1.134-.432-1.134-1.026v-8.99"/></svg>
